packages/sources/assets/src/assets/flag-cn.svg

<svg width="28" height="20" viewBox="0 0 28 20" fill="none" xmlns="http://www.w3.org/2000/svg">
<rect width="28" height="20" rx="2" fill="white"/>
<mask id="mask0_503_3839" style="mask-type:alpha" maskUnits="userSpaceOnUse" x="0" y="0" width="28" height="20">
<rect width="28" height="20" rx="2" fill="white"/>
</mask>
<g mask="url(#mask0_503_3839)">
<rect width="28" height="20" fill="#F1361D"/>
<path fill-rule="evenodd" clip-rule="evenodd" d="M10.0728 3.10073L11.0412 3.26583L11.7675 3.92733L11.9326 2.95888L12.5941 2.23255L11.6257 2.06744L10.8994 1.40594L10.7342 2.37439L10.0728 3.10073ZM12.6668 6.488L13.506 5.97725L14.4881 5.99997L13.9774 5.16076L14.0001 4.1786L13.1609 4.68935L12.1787 4.66664L12.6895 5.50585L12.6668 6.488ZM11.5284 11.9708L10.7075 12.5106L10.6959 11.5282L10.1562 10.7073L11.1385 10.6958L11.9594 10.156L11.971 11.1384L12.5107 11.9593L11.5284 11.9708ZM12.2412 9.43141L13.2177 9.32317L14.0982 9.75884L13.99 8.7824L14.4256 7.90187L13.4492 8.0101L12.5687 7.57443L12.6769 8.55087L12.2412 9.43141Z" fill="#FFDC42"/>
<path fill-rule="evenodd" clip-rule="evenodd" d="M6.66666 8.22667L4.31552 9.90274L5.18301 7.14874L2.86243 5.4306L5.74971 5.40461L6.66666 2.66667L7.5836 5.40461L10.4709 5.4306L8.1503 7.14874L9.0178 9.90274L6.66666 8.22667Z" fill="#FFDC42"/>
</g>
</svg>

<svg width="28" height="20" fill="none" xmlns="http://www.w3.org/2000/svg"><rect width="28" height="20" rx="2" fill="#fff"/><mask id="a" style="mask-type:alpha" maskUnits="userSpaceOnUse" x="0" y="0" width="28" height="20"><rect width="28" height="20" rx="2" fill="#fff"/></mask><g mask="url(#a)"><path fill="#F1361D" d="M0 0h28v20H0z"/><path fill-rule="evenodd" clip-rule="evenodd" d="m10.073 3.1.968.166.726.661.166-.968.661-.726-.968-.166-.727-.661-.165.968-.661.727Zm2.594 3.388.839-.51.982.022-.51-.84.022-.98-.84.51-.981-.022.51.839-.022.982Zm-1.139 5.483-.82.54-.012-.983-.54-.82.982-.012.821-.54.012.982.54.821-.983.012Zm.713-2.54.977-.108.88.436-.108-.977.436-.88-.977.108-.88-.436.108.977-.436.88ZM6.667 8.227 4.316 9.903l.867-2.754-2.32-1.718 2.887-.026.917-2.738.917 2.738 2.887.026-2.32 1.718.867 2.754-2.351-1.676Z" fill="#FFDC42"/></g></svg>
